Numix/16/status/indicator-keyboard-It-5.svg

<?xml version="1.0" encoding="UTF-8" standalone="no"?>
<svg
   xmlns:dc="http://purl.org/dc/elements/1.1/"
   xmlns:cc="http://creativecommons.org/ns#"
   xmlns:rdf="http://www.w3.org/1999/02/22-rdf-syntax-ns#"
   xmlns:svg="http://www.w3.org/2000/svg"
   xmlns="http://www.w3.org/2000/svg"
   xmlns:sodipodi="http://sodipodi.sourceforge.net/DTD/sodipodi-0.dtd"
   xmlns:inkscape="http://www.inkscape.org/namespaces/inkscape"
   viewBox="0 0 16 16"
   id="svg2"
   version="1.1"
   inkscape:version="0.91 r13725"
   sodipodi:docname="indicator-keyboard-It-5.svg">
  <metadata
     id="metadata14">
    <rdf:RDF>
      <cc:Work
         rdf:about="">
        <dc:format>image/svg+xml</dc:format>
        <dc:type
           rdf:resource="http://purl.org/dc/dcmitype/StillImage" />
      </cc:Work>
    </rdf:RDF>
  </metadata>
  <defs
     id="defs12" />
  <sodipodi:namedview
     pagecolor="#ffffff"
     bordercolor="#666666"
     borderopacity="1"
     objecttolerance="10"
     gridtolerance="10"
     guidetolerance="10"
     inkscape:pageopacity="0"
     inkscape:pageshadow="2"
     inkscape:window-width="640"
     inkscape:window-height="480"
     id="namedview10"
     showgrid="false"
     inkscape:zoom="14.75"
     inkscape:cx="8"
     inkscape:cy="8"
     inkscape:window-x="65"
     inkscape:window-y="24"
     inkscape:window-maximized="0"
     inkscape:current-layer="svg2" />
  <path
     style="fill:#ececec;fill-opacity:1"
     d="M 1.5996094 0 C 0.71320937 2.9605947e-16 0 0.71320937 0 1.5996094 L 0 14.400391 C 2.9605947e-16 15.286791 0.71320937 16 1.5996094 16 L 14.400391 16 C 15.286791 16 16 15.286791 16 14.400391 L 16 1.5996094 C 16 0.71320937 15.286791 0 14.400391 0 L 1.5996094 0 z M 4.1367188 4.859375 L 4.7480469 4.859375 L 4.7480469 11.095703 L 4.1367188 11.095703 L 4.1367188 4.859375 z M 6.8808594 4.9667969 L 6.8808594 6.4433594 L 8.734375 6.4433594 L 8.734375 6.9375 L 6.8808594 6.9375 L 6.8808594 9.4121094 C 6.8808594 9.6761094 6.9013594 9.8925467 6.9433594 10.060547 C 6.9913594 10.222547 7.0585781 10.349453 7.1425781 10.439453 C 7.2265781 10.529453 7.3272656 10.589141 7.4472656 10.619141 C 7.5672656 10.649141 7.69975 10.664062 7.84375 10.664062 C 8.08975 10.664062 8.2875 10.636031 8.4375 10.582031 C 8.5875 10.522031 8.7050625 10.469875 8.7890625 10.421875 L 8.9335938 10.90625 C 8.8495937 10.96025 8.7021875 11.023703 8.4921875 11.095703 C 8.2821875 11.161703 8.0545937 11.195313 7.8085938 11.195312 C 7.5205938 11.195312 7.2780781 11.159891 7.0800781 11.087891 C 6.8880781 11.009891 6.7313281 10.894141 6.6113281 10.744141 C 6.4973281 10.588141 6.4171406 10.397922 6.3691406 10.169922 C 6.3211406 9.9419217 6.296875 9.671375 6.296875 9.359375 L 6.296875 5.0742188 L 6.8808594 4.9667969 z M 9.8984375 8.8417969 L 11.724609 8.8417969 L 11.724609 9.1757812 L 10.232422 9.1757812 C 10.228489 9.2498812 10.22261 9.3458906 10.214844 9.4628906 C 10.207044 9.5798906 10.199206 9.6994188 10.191406 9.8242188 C 10.183606 9.9451188 10.173809 10.062681 10.162109 10.175781 C 10.150409 10.288881 10.140613 10.379012 10.132812 10.445312 C 10.433113 10.453112 10.691756 10.490341 10.910156 10.556641 C 11.128556 10.622941 11.308819 10.711119 11.449219 10.824219 C 11.589619 10.937319 11.693466 11.074475 11.759766 11.234375 C 11.829966 11.394275 11.863281 11.572578 11.863281 11.767578 C 11.863281 11.939178 11.835844 12.097894 11.777344 12.246094 C 11.722744 12.394294 11.636531 12.523613 11.519531 12.632812 C 11.402531 12.742012 11.253619 12.828225 11.074219 12.890625 C 10.894819 12.953025 10.6832 12.984375 10.4375 12.984375 C 10.3127 12.984375 10.195137 12.974578 10.085938 12.955078 C 9.9806372 12.939478 9.8846281 12.919884 9.7988281 12.896484 C 9.7169281 12.873084 9.6463906 12.849572 9.5878906 12.826172 C 9.5293906 12.802772 9.4862844 12.783178 9.4589844 12.767578 L 9.5585938 12.427734 C 9.5819937 12.443334 9.6211813 12.462928 9.6757812 12.486328 C 9.7342813 12.509728 9.8009 12.533241 9.875 12.556641 C 9.953 12.576141 10.039213 12.593775 10.132812 12.609375 C 10.230312 12.624975 10.3322 12.632812 10.4375 12.632812 C 10.6325 12.632812 10.793175 12.611259 10.921875 12.568359 C 11.054475 12.521559 11.160281 12.458859 11.238281 12.380859 C 11.316281 12.302859 11.371144 12.212728 11.402344 12.111328 C 11.437444 12.006028 11.455078 11.894337 11.455078 11.773438 C 11.455078 11.617437 11.429606 11.476362 11.378906 11.351562 C 11.328206 11.226762 11.238075 11.120956 11.109375 11.035156 C 10.980675 10.949356 10.808244 10.884697 10.589844 10.841797 C 10.371444 10.794997 10.093212 10.771484 9.7578125 10.771484 C 9.7812125 10.572584 9.8008062 10.392316 9.8164062 10.228516 C 9.8320062 10.060816 9.8457219 9.9001469 9.8574219 9.7480469 C 9.8691219 9.5920469 9.8769594 9.4431281 9.8808594 9.2988281 C 9.8886594 9.1506281 9.8945375 8.9977969 9.8984375 8.8417969 z "
     id="path4" />
</svg>

<svg xmlns="http://www.w3.org/2000/svg" viewBox="0 0 16 16">
 <path d="m 1.6 0 c -0.886 0 -1.6 0.713 -1.6 1.6 l 0 12.801 c 0 0.886 0.713 1.6 1.6 1.6 l 12.801 0 c 0.886 0 1.6 -0.713 1.6 -1.6 l 0 -12.801 c 0 -0.886 -0.713 -1.6 -1.6 -1.6 l -12.801 0 z m 2.537 4.859 l 0.611 0 l 0 6.236 l -0.611 0 l 0 -6.236 z m 2.744 0.107 l 0 1.477 l 1.854 0 l 0 0.494 l -1.854 0 l 0 2.475 c 0 0.264 0.02 0.48 0.063 0.648 c 0.048 0.162 0.115 0.289 0.199 0.379 c 0.084 0.09 0.185 0.15 0.305 0.18 c 0.12 0.03 0.252 0.045 0.396 0.045 c 0.246 0 0.444 -0.028 0.594 -0.082 c 0.15 -0.06 0.268 -0.112 0.352 -0.16 l 0.145 0.484 c -0.084 0.054 -0.231 0.117 -0.441 0.189 c -0.21 0.066 -0.438 0.1 -0.684 0.1 c -0.288 0 -0.531 -0.035 -0.729 -0.107 c -0.192 -0.078 -0.349 -0.194 -0.469 -0.344 c -0.114 -0.156 -0.194 -0.346 -0.242 -0.574 c -0.048 -0.228 -0.072 -0.499 -0.072 -0.811 l 0 -4.285 l 0.584 -0.107 z m 3.02 3.875 l 1.826 0 l 0 0.334 l -1.492 0 c -0.004 0.074 -0.01 0.17 -0.018 0.287 c -0.008 0.117 -0.016 0.237 -0.023 0.361 c -0.008 0.121 -0.018 0.238 -0.029 0.352 c -0.012 0.113 -0.021 0.203 -0.029 0.27 c 0.3 0.008 0.559 0.045 0.777 0.111 c 0.218 0.066 0.399 0.154 0.539 0.268 c 0.14 0.113 0.244 0.25 0.311 0.41 c 0.07 0.16 0.104 0.338 0.104 0.533 c 0 0.172 -0.027 0.33 -0.086 0.479 c -0.055 0.148 -0.141 0.278 -0.258 0.387 c -0.117 0.109 -0.266 0.195 -0.445 0.258 c -0.179 0.062 -0.391 0.094 -0.637 0.094 c -0.125 0 -0.242 -0.01 -0.352 -0.029 c -0.105 -0.016 -0.201 -0.035 -0.287 -0.059 c -0.082 -0.023 -0.152 -0.047 -0.211 -0.07 c -0.059 -0.023 -0.102 -0.043 -0.129 -0.059 l 0.1 -0.34 c 0.023 0.016 0.063 0.035 0.117 0.059 c 0.059 0.023 0.125 0.047 0.199 0.07 c 0.078 0.019 0.164 0.037 0.258 0.053 c 0.098 0.016 0.199 0.023 0.305 0.023 c 0.195 0 0.356 -0.022 0.484 -0.064 c 0.133 -0.047 0.238 -0.109 0.316 -0.188 c 0.078 -0.078 0.133 -0.168 0.164 -0.27 c 0.035 -0.105 0.053 -0.217 0.053 -0.338 c 0 -0.156 -0.025 -0.297 -0.076 -0.422 c -0.051 -0.125 -0.141 -0.231 -0.27 -0.316 c -0.129 -0.086 -0.301 -0.15 -0.52 -0.193 c -0.218 -0.047 -0.497 -0.07 -0.832 -0.07 c 0.023 -0.199 0.043 -0.379 0.059 -0.543 c 0.016 -0.168 0.029 -0.328 0.041 -0.48 c 0.012 -0.156 0.02 -0.305 0.023 -0.449 c 0.008 -0.148 0.014 -0.301 0.018 -0.457 z" style="fill:#ececec;fill-opacity:1"/>
</svg>
